X: 137
T: No_62_Mourners'_Song.krn
%%abc-version 2.0
%%abcx-abcm2ps-target-version 5.9.1 (29 Sep 2008)
%%abc-creator hum2abc beta
%%abcx-conversion-date 2020/08/10 18:54:56
%%gracespace 0 6 6
%%humdrum-veritas 3478159115
%%humdrum-veritas-data 2120447882
%%linebreak <none>
%%barnumbers 0
L: 1/8
M: 2/4
%%staves {1 2}
V: 1 clef=bass
V: 2 clef=bass
K: C
[V:1] ED [I:setbarnb 1]| 
[V:2] z2 | 
[V:1] E<D D3/D/ ||  
[V:2] G,,G,, G,,G,, ||  
[V:1] [M:3/4]D>D DA, ED ||  
[V:2] [M:3/4]G,,G,, G,,G,, G,,G,, ||  
[V:1] [M:2/4]E<D D3/D/ | 
[V:2] [M:2/4]z4 | 
[V:1] D>DD2 ||  
[V:2] z4 ||  
[V:1] [M:3/4]C<C D/DC/A,2 ||  
[V:2] [M:3/4]z6 ||  
[V:1] [M:2/4]C<A, A,3/A,/ | 
[V:2] [M:2/4]z4 | 
[V:1] A,>A,A,2 ]|:  
[V:2] z4 ]|:  
[V:1] [M:3/4]A,A, DC (3DCF, ||  
[V:2] [M:3/4]z6 ||  
[V:1] [M:2/4]F,<D, D,3/F,/ | 
[V:2] [M:2/4]z4 | 
[V:1] F,<D, D,3/C,/ ||  
[V:2] z4 ||  
[V:1] [M:3/4]D,6 | 
[V:2] [M:3/4]z6 | 
[V:1] C,2D,/D,C,/A,,2 ||  
[V:2] z6 ||  
[V:1] [M:2/4]C,A,,/A,,< A,,A,,/ | 
[V:2] [M:2/4]z4 | 
[V:1] A,,4- | 
[V:2] z4 | 
[V:1] A,,2z2 :|]  
[V:2] z4 :|]  


